libs/ui/packages/crypto-icons/src/svg/LPT.svg

<svg width="24" height="24" viewBox="0 0 24 24" fill="none">
<path fill-rule="evenodd" clip-rule="evenodd" d="M10.6688 16.4906H13.2997V19.1216H10.6688V16.4906ZM10.6688 4.87839H13.2997V7.50939H10.6688V4.87839ZM16.869 4.87839H19.5V7.50939H16.869V4.87839ZM4.5 4.87839H7.131V7.50939H4.5V4.87839ZM13.7685 10.6849H16.3995V13.3159H13.7685V10.6849ZM7.56225 10.6849H10.1932V13.3159H7.56225V10.6849Z" fill="black"/>
</svg>

<svg width="24" height="24" viewBox="0 0 24 24" fill="none"><path fill="#000" fill-rule="evenodd" d="M10.669 16.49h2.63v2.632h-2.63zm0-11.612h2.63V7.51h-2.63zm6.2 0H19.5V7.51h-2.631zm-12.369 0h2.631V7.51H4.5zm9.269 5.807h2.63v2.63h-2.63zm-6.207 0h2.631v2.63h-2.63z" clip-rule="evenodd"/></svg>
